!!!OTL: WILLKOMMEN LIEBER MONDENSCHEIN
!!!ARE: Europa, Mitteleuropa, Deutschland
!!!SCT: F0085
!!!YEM: Copyright 1995, estate of Helmut Schaffrath.
**kern
*ICvox
*Ivox
*M6/8
*k[f#]
*G:
{8g
=1
4dd
8dd
8dd
8a
8b
=2
8a
8g
8g
4g}
{8g
=3
4gg
8gg
8gg
8ff#
8ee
=4
2dd
8r}
{8b
=5
4cc
8ee
4a
8cc
=6
4b
8dd
4g}
{8b
=7
8a
8b
8cc
8d
8e
8f#
=8
2g
8r}
==
!!!AGN: Moral - Lied
!!!ONB: ESAC (Essen Associative Code) Database: FINK
!!!AMT: compound duple
!!!AIN: vox
!!!EED: Helmut Schaffrath
!!!EEV: 1.0
*-
